svg/diff-modified.svg

<svg height="1024" width="896" xmlns="http://www.w3.org/2000/svg">
  <path d="M832 64h-768c-32 0-64 32-64 64v768c0 32 32 64 64 64h768c32 0 64-32 64-64v-768c0-32-32-64-64-64z m-64 736c0 16-17 32-32 32h-576c-18 0-32-12-32-32v-576c0-16 16-32 32-32h576c15 0 32 16 32 32v576z m-320-416c-71 0-128 57-128 128s57 128 128 128 128-57 128-128-57-128-128-128z" />
</svg>

<svg height="1024" width="896" xmlns="http://www.w3.org/2000/svg">
  <path d="M832 64H64C0 64 0 128 0 128v768c0 0 0 64 64 64 0 0 704 0 768 0s64-64 64-64V128C896 128 896 64 832 64zM768 800c0 32-32 32-32 32H160c0 0-32 0-32-32V224c0-32 32-32 32-32h576c0 0 32 0 32 32C768 224 768 773.25 768 800zM448 384c-70.688 0-128 57.312-128 128s57.312 128 128 128 128-57.312 128-128S518.688 384 448 384z" />
</svg>
